images/home.svg

<svg width="13" height="13" viewBox="0 0 13 13" fill="none" xmlns="http://www.w3.org/2000/svg">
<path fill-rule="evenodd" clip-rule="evenodd" d="M0.162109 6.1499L6.16211 0.649902L12.1621 6.1499V12.3499H0.162109V6.1499ZM1.16211 6.5499V11.3499H11.1621V6.5499L6.16211 2.0499L1.16211 6.5499ZM5.16211 10.3499H4.16211V6.84985H8.16211V10.3499H7.16211V7.84985H5.16211V10.3499Z" fill="white"/>
</svg>

<svg width="13" height="13" fill="none" xmlns="http://www.w3.org/2000/svg"><path fill-rule="evenodd" clip-rule="evenodd" d="m.16 6.15 6-5.5 6 5.5v6.2h-12v-6.2Zm1 .4v4.8h10v-4.8l-5-4.5-5 4.5Zm4 3.8h-1v-3.5h4v3.5h-1v-2.5h-2v2.5Z" fill="#fff"/></svg>
